icons/svg/crypto/skl.svg

<svg fill="none" height="32" viewBox="0 0 32 32" width="32" xmlns="http://www.w3.org/2000/svg"><path d="m16 0c-8.83657 0-16 7.16343-16 16 0 8.8366 7.16343 16 16 16 8.8366 0 16-7.1634 16-16 0-8.83657-7.1634-16-16-16z" fill="#000"/><g fill="#fff"><path d="m7.54297 8.077v16.803h14.60703v-1.774h-12.58103v-13.256h12.58103v-1.773z"/><path d="m22.0371 21.6711c2.9832 0 4.0246-1.6887 4.0246-3.1522 0-1.6042-.9006-2.5893-2.73-2.927l-1.8857-.3377c-.591-.1126-1.2946-.3378-1.2946-1.0695 0-.8725.8725-1.1821 1.6886-1.1821 1.0695 0 1.6605.3659 1.8576 1.1539h1.9982c-.197-1.773-1.6324-2.8988-3.7995-2.8988-2.5892 0-3.7713 1.4916-3.7713 2.9833 0 1.4916.9006 2.4204 2.5611 2.73l1.9138.3377c.7036.1126 1.3791.3659 1.3791 1.2946 0 .788-.7318 1.2947-1.8857 1.2947-1.3227 0-2.1108-.5066-2.2796-1.4635h-1.9983c.2533 2.0545 1.7731 3.2366 4.2217 3.2366z"/></g></svg>

<svg fill="none" height="32" width="32" xmlns="http://www.w3.org/2000/svg">
    <path d="M16 0C7.163 0 0 7.163 0 16s7.163 16 16 16 16-7.163 16-16S24.837 0 16 0Z" fill="#000" />
    <path d="M7.543 8.077V24.88H22.15v-1.774H9.569V9.85H22.15V8.077H7.543Z" fill="#fff" />
    <path d="M22.037 21.671c2.983 0 4.025-1.689 4.025-3.152 0-1.604-.9-2.59-2.73-2.927l-1.886-.338c-.591-.112-1.295-.338-1.295-1.07 0-.872.873-1.181 1.689-1.181 1.07 0 1.66.365 1.858 1.153h1.998c-.197-1.773-1.633-2.898-3.8-2.898-2.589 0-3.771 1.491-3.771 2.983s.9 2.42 2.561 2.73l1.914.338c.703.112 1.379.366 1.379 1.294 0 .788-.732 1.295-1.886 1.295-1.322 0-2.11-.507-2.28-1.463h-1.998c.254 2.054 1.773 3.236 4.222 3.236Z"
        fill="#fff" />
</svg>
